static/assets/img/icons/theme/navigation/sign-out.svg

<svg height="24" viewBox="0 0 24 24" width="24" xmlns="http://www.w3.org/2000/svg"><g fill="none" fill-rule="evenodd"><path d="m0 0h24v24h-24z" opacity="0"/><g fill="#000"><path d="m14.0069431 7.00607258c-.5522847 0-1-.44752105-1-.99956624 0-.5520452.4477153-.99956625 1-.99956625h1c2.209139 0 4 1.79008421 4 3.99826498v5.99652993c0 2.2081808-1.790861 3.998265-4 3.998265h-11.99999999c-2.209139 0-4.00000001-1.7900842-4.00000001-3.998265v-6.00347002c0-2.20818078 1.79086101-3.99826498 4.00000001-3.99826498h1.00000482c.55228475 0 1 .44752105 1 .99956624 0 .5520452-.44771525.99956625-1 .99956625h-1.00000482c-1.1045695 0-2 .8950421-2 1.99913249v6.00347002c0 1.1040904.8954305 1.9991325 2 1.9991325h11.99999999c1.1045695 0 2-.8950421 2-1.9991325v-5.99652993c0-1.10409039-.8954305-1.99913249-2-1.99913249z" fill-rule="nonzero" opacity=".3" transform="matrix(0 -1 -1 0 21.006943 21.006943)"/><rect height="12" opacity=".3" rx="1" transform="matrix(0 1 -1 0 26 -2)" width="2" x="13" y="6"/><path d="m21.7928932 9.79289322c.3905243-.39052429 1.0236893-.39052429 1.4142136 0 .3905243.39052428.3905243 1.02368928 0 1.41421358l-3 3c-.3905243.3905243-1.0236893.3905243-1.4142136 0l-3-3c-.3905243-.3905243-.3905243-1.0236893 0-1.41421358.3905243-.39052429 1.0236893-.39052429 1.4142136 0l2.2928932 2.29289318z" fill-rule="nonzero" transform="matrix(0 -1 1 0 7.5 31.5)"/></g></g></svg>

<svg width="24px" height="24px" viewBox="0 0 24 24" version="1.1" xmlns="http://www.w3.org/2000/svg" xmlns:xlink="http://www.w3.org/1999/xlink">
    <title>Icon For Sign-out</title>
    <g stroke="none" stroke-width="1" fill="none" fill-rule="evenodd">
        <rect opacity="0" x="0" y="0" width="24" height="24"></rect>
        <path d="M14.0069431,7.00607258 C13.4546584,7.00607258 13.0069431,6.55855153 13.0069431,6.00650634 C13.0069431,5.45446114 13.4546584,5.00694009 14.0069431,5.00694009 L15.0069431,5.00694009 C17.2160821,5.00694009 19.0069431,6.7970243 19.0069431,9.00520507 L19.0069431,15.001735 C19.0069431,17.2099158 17.2160821,19 15.0069431,19 L3.00694311,19 C0.797804106,19 -0.993056895,17.2099158 -0.993056895,15.001735 L-0.993056895,8.99826498 C-0.993056895,6.7900842 0.797804106,5 3.00694311,5 L4.00694793,5 C4.55923268,5 5.00694793,5.44752105 5.00694793,5.99956624 C5.00694793,6.55161144 4.55923268,6.99913249 4.00694793,6.99913249 L3.00694311,6.99913249 C1.90237361,6.99913249 1.00694311,7.89417459 1.00694311,8.99826498 L1.00694311,15.001735 C1.00694311,16.1058254 1.90237361,17.0008675 3.00694311,17.0008675 L15.0069431,17.0008675 C16.1115126,17.0008675 17.0069431,16.1058254 17.0069431,15.001735 L17.0069431,9.00520507 C17.0069431,7.90111468 16.1115126,7.00607258 15.0069431,7.00607258 L14.0069431,7.00607258 Z" fill="#000000" fill-rule="nonzero" opacity="0.3" transform="translate(9.006943, 12.000000) scale(-1, 1) rotate(-90.000000) translate(-9.006943, -12.000000) "></path>
        <rect fill="#000000" opacity="0.3" transform="translate(14.000000, 12.000000) rotate(-270.000000) translate(-14.000000, -12.000000) " x="13" y="6" width="2" height="12" rx="1"></rect>
        <path d="M21.7928932,9.79289322 C22.1834175,9.40236893 22.8165825,9.40236893 23.2071068,9.79289322 C23.5976311,10.1834175 23.5976311,10.8165825 23.2071068,11.2071068 L20.2071068,14.2071068 C19.8165825,14.5976311 19.1834175,14.5976311 18.7928932,14.2071068 L15.7928932,11.2071068 C15.4023689,10.8165825 15.4023689,10.1834175 15.7928932,9.79289322 C16.1834175,9.40236893 16.8165825,9.40236893 17.2071068,9.79289322 L19.5,12.0857864 L21.7928932,9.79289322 Z" fill="#000000" fill-rule="nonzero" transform="translate(19.500000, 12.000000) rotate(-90.000000) translate(-19.500000, -12.000000) "></path>
    </g>
</svg>
